places/scalable/folder-red-script.svg

<svg xmlns="http://www.w3.org/2000/svg" style="isolation:isolate" width="256" height="256"><path d="M53.039 21C16.724 21 13 23.055 13 59.371v52.167h230V79.563c0-36.316-3.724-42.102-40.039-42.102h-89.336L97.198 21H53.039z" fill="#BC1938"/><path d="M53.039 70.384C16.722 70.384 13 74.114 13 110.429v84.524C13 231.269 16.722 235 53.039 235h149.922c36.317 0 40.039-3.731 40.039-40.047V93.969c0-36.316-3.722-40.047-40.039-40.047H119.53l-16.438 16.462H53.039z" fill="#F22C42"/><linearGradient id="a" y1=".5" x2="0" y2="-.5" gradientTransform="matrix(230 0 0 181.078 13 53.922)" gradientUnits="userSpaceOnUse"><stop offset="0%" stop-opacity=".07" stop-color="#fff"/><stop offset="67.282%" stop-opacity="0" stop-color="#fcefe8"/></linearGradient><path d="M53.039 70.384C16.722 70.384 13 74.114 13 110.429v84.524C13 231.269 16.722 235 53.039 235h149.922c36.317 0 40.039-3.731 40.039-40.047V93.969c0-36.316-3.722-40.047-40.039-40.047H119.53l-16.438 16.462H53.039z" fill="url(#a)"/><g opacity=".4"><radialGradient id="b" fx=".5" fy=".136" cx=".5" cy=".5" r=".272" gradientTransform="matrix(230 0 0 60.62 13 21)" gradientUnits="userSpaceOnUse"><stop offset="0%" stop-color="#fff"/><stop offset="100%" stop-opacity=".204" stop-color="#fff"/></radialGradient><path d="M53.039 21C16.724 21 13 23.055 13 59.371v2.059c0-36.316 3.724-38.373 40.039-38.373h44.159l16.427 16.461h89.336c36.315 0 40.039 5.786 40.039 42.102v-2.057c0-36.316-3.724-42.102-40.039-42.102h-89.336L97.198 21H53.039z" fill="url(#b)"/></g><g opacity=".4"><radialGradient id="c" fx=".482" fy=".211" cx=".5" cy=".5" r=".272" gradientTransform="matrix(230 0 0 58.565 13 53.922)" gradientUnits="userSpaceOnUse"><stop offset="0%" stop-color="#fff"/><stop offset="100%" stop-opacity=".204" stop-color="#fff"/></radialGradient><path d="M119.53 53.922l-16.438 16.462H53.039C16.724 70.384 13 74.112 13 110.427v2.06c0-36.316 3.724-40.046 40.039-40.046h50.053l16.438-16.46h83.431c36.315 0 40.039 3.727 40.039 40.043v-2.057c0-36.316-3.724-40.045-40.039-40.045H119.53z" fill="url(#c)"/></g><path d="M243 167.096l-65.715 65.845h25.676c36.315 0 40.039-3.727 40.039-40.043v-25.802z" fill="#FFF" opacity=".1"/><path d="M13 192.898v2.057C13 231.271 16.724 235 53.039 235h149.922c36.315 0 40.039-3.729 40.039-40.045v-2.057c0 36.316-3.724 40.043-40.039 40.043H53.039c-36.315 0-40.039-3.727-40.039-40.043z" opacity=".2"/><g opacity=".62"><path d="M121.785 145.355h25.366v6.396h-25.366v-6.396zm-51.984-38.586c-2.445 24.73-2.382 63.198.082 89.855.647 7 6.86 13.145 13.866 13.714 26.674 2.168 64.786 2.232 88.763.098 7.002-.623 13.203-6.813 13.838-13.813.708-7.787 1.649-27.638 1.649-46.891 0-19.091-.925-37.596-1.477-42.87-.73-6.992-7.02-13.02-14.035-13.455-29.83-1.848-67.814-1.817-88.731-.259-7.01.522-13.263 6.626-13.955 13.621zm32.96 25.796v6.395h3.171c1.776.064 3.171-1.407 3.171-3.197 0-1.791-1.395-3.198-3.171-3.198h-3.171zm-6.341-6.395v-6.395h-3.171c-1.775 0-3.17 1.407-3.17 3.197 0 1.791 1.395 3.198 3.17 3.198h3.171zm6.341-12.79v-6.395H96.42v6.395h-3.171c-5.263 0-9.512 4.284-9.512 9.592 0 5.308 4.249 9.593 9.512 9.593h3.171v6.395H84.308c1.332 3.709 4.82 6.395 8.941 6.395h3.171v6.396h6.341v-6.396h3.171c5.263 0 9.512-4.284 9.512-9.592 0-5.308-4.249-9.593-9.512-9.593h-3.171v-6.395h12.112c-1.331-3.709-4.819-6.395-8.941-6.395h-3.171z" fill-rule="evenodd" fill="#FFF"/></g></svg>

<?xml version="1.0" standalone="no"?><!-- Generator: Gravit.io -->
<svg xmlns="http://www.w3.org/2000/svg" 
  xmlns:xlink="http://www.w3.org/1999/xlink" style="isolation:isolate" viewBox="0 0 256 256" width="256" height="256">
  <switch>
    <g>
      <g id="folder">
        <path d=" M 53.039 21 C 16.724 21 13 23.055 13 59.371 L 13 111.538 L 243 111.538 L 243 79.563 C 243 43.247 239.276 37.461 202.961 37.461 L 113.625 37.461 L 97.198 21 L 53.039 21 Z " id="orange" fill="#BC1938"/>
        <path d=" M 53.039 70.384 C 16.722 70.384 13 74.114 13 110.429 L 13 194.953 C 13 231.269 16.722 235 53.039 235 L 202.961 235 C 239.278 235 243 231.269 243 194.953 L 243 93.969 C 243 57.653 239.278 53.922 202.961 53.922 L 119.53 53.922 L 103.092 70.384 L 53.039 70.384 Z " id="change-color-easy" fill="#F22C42"/>
        <linearGradient id="_lgradient_37" x1="0" y1="0.5" x2="2.83276944882399e-16" y2="-0.5" gradientTransform="matrix(230,0,0,181.078,13,53.922)" gradientUnits="userSpaceOnUse">
          <stop offset="0%" stop-opacity="0.07" style="stop-color:rgb(255,255,255)"/>
          <stop offset="67.28219512106674%" stop-opacity="0" style="stop-color:rgb(252,239,232)"/>
        </linearGradient>
        <path d=" M 53.039 70.384 C 16.722 70.384 13 74.114 13 110.429 L 13 194.953 C 13 231.269 16.722 235 53.039 235 L 202.961 235 C 239.278 235 243 231.269 243 194.953 L 243 93.969 C 243 57.653 239.278 53.922 202.961 53.922 L 119.53 53.922 L 103.092 70.384 L 53.039 70.384 Z " id="gradient white" fill="url(#_lgradient_37)"/>
        <g opacity="0.4">
          <radialGradient id="_rgradient_73" fx="0.5000000213726793" fy="0.13577386516315215" cx="0.5" cy="0.5" r="0.27154159375000003" gradientTransform="matrix(230,0,0,60.62,13,21)" gradientUnits="userSpaceOnUse">
            <stop offset="0%" stop-opacity="1" style="stop-color:rgb(255,255,255)"/>
            <stop offset="100%" stop-opacity="0.20392157" style="stop-color:rgb(255,255,255)"/>
          </radialGradient>
          <path d=" M 53.039 21 C 16.724 21 13 23.055 13 59.371 L 13 61.43 C 13 25.114 16.724 23.057 53.039 23.057 L 97.198 23.057 L 113.625 39.518 L 202.961 39.518 C 239.276 39.518 243 45.304 243 81.62 L 243 79.563 C 243 43.247 239.276 37.461 202.961 37.461 L 113.625 37.461 L 97.198 21 L 53.039 21 Z " id="white" fill="url(#_rgradient_73)"/>
        </g>
        <g opacity="0.4">
          <radialGradient id="_rgradient_74" fx="0.48214287810452355" fy="0.2108154047287485" cx="0.5" cy="0.5" r="0.27154159375" gradientTransform="matrix(230,0,0,58.565,13,53.922)" gradientUnits="userSpaceOnUse">
            <stop offset="0%" stop-opacity="1" style="stop-color:rgb(255,255,255)"/>
            <stop offset="100%" stop-opacity="0.20392157" style="stop-color:rgb(255,255,255)"/>
          </radialGradient>
          <path d=" M 119.53 53.922 L 103.092 70.384 L 53.039 70.384 C 16.724 70.384 13 74.112 13 110.427 L 13 112.487 C 13 76.171 16.724 72.441 53.039 72.441 L 103.092 72.441 L 119.53 55.981 L 202.961 55.981 C 239.276 55.981 243 59.708 243 96.024 L 243 93.967 C 243 57.651 239.276 53.922 202.961 53.922 L 119.53 53.922 Z " id="white" fill="url(#_rgradient_74)"/>
        </g>
        <g opacity="0.1">
          <path d=" M 243 167.096 L 177.285 232.941 L 202.961 232.941 C 239.276 232.941 243 229.214 243 192.898 L 243 167.096 Z " id="white" fill="rgb(255,255,255)"/>
        </g>
        <g opacity="0.2">
          <path d=" M 13 192.898 L 13 194.955 C 13 231.271 16.724 235 53.039 235 L 202.961 235 C 239.276 235 243 231.271 243 194.955 L 243 192.898 C 243 229.214 239.276 232.941 202.961 232.941 L 53.039 232.941 C 16.724 232.941 13 229.214 13 192.898 Z " id="dark" fill="rgb(0,0,0)"/>
        </g>
      </g>
      <g opacity="0.62">
        <path d=" M 121.785 145.355 L 147.151 145.355 L 147.151 151.751 L 121.785 151.751 L 121.785 145.355 L 121.785 145.355 L 121.785 145.355 Z  M 69.801 106.769 C 67.356 131.499 67.419 169.967 69.883 196.624 C 70.53 203.624 76.743 209.769 83.749 210.338 C 110.423 212.506 148.535 212.57 172.512 210.436 C 179.514 209.813 185.715 203.623 186.35 196.623 C 187.058 188.836 187.999 168.985 187.999 149.732 C 187.999 130.641 187.074 112.136 186.522 106.862 C 185.792 99.87 179.502 93.842 172.487 93.407 C 142.657 91.559 104.673 91.59 83.756 93.148 C 76.746 93.67 70.493 99.774 69.801 106.769 Z  M 102.761 132.565 L 102.761 138.96 L 105.932 138.96 C 107.708 139.024 109.103 137.553 109.103 135.763 C 109.103 133.972 107.708 132.565 105.932 132.565 L 102.761 132.565 L 102.761 132.565 L 102.761 132.565 Z  M 96.42 126.17 L 96.42 119.775 L 93.249 119.775 C 91.474 119.775 90.079 121.182 90.079 122.972 C 90.079 124.763 91.474 126.17 93.249 126.17 L 96.42 126.17 L 96.42 126.17 L 96.42 126.17 Z  M 102.761 113.38 L 102.761 106.985 L 96.42 106.985 L 96.42 113.38 L 93.249 113.38 C 87.986 113.38 83.737 117.664 83.737 122.972 C 83.737 128.28 87.986 132.565 93.249 132.565 L 96.42 132.565 L 96.42 138.96 L 93.249 138.96 L 84.308 138.96 C 85.64 142.669 89.128 145.355 93.249 145.355 L 96.42 145.355 L 96.42 151.751 L 102.761 151.751 L 102.761 145.355 L 105.932 145.355 C 111.195 145.355 115.444 141.071 115.444 135.763 C 115.444 130.455 111.195 126.17 105.932 126.17 L 102.761 126.17 L 102.761 119.775 L 105.932 119.775 L 114.873 119.775 C 113.542 116.066 110.054 113.38 105.932 113.38 L 102.761 113.38 L 102.761 113.38 L 102.761 113.38 Z " fill-rule="evenodd" id="script" fill="#FFFFFF" />
      </g>
    </g>
  </switch>
</svg>
